X: 1
T: Delvin Side
M: C|
L: 1/8
R: Reel
B: Kerr (Merry Melodies), V.4 #67 p.10
S: AK/Fiddler's Companion
K: D
|: DCDE FEFA | dFAF dFAF | E/E/E ED EFGA | (3Bcd AF FEEF |
|  DCDE FEFA | dFAF dFAg | faef deBd | AFEF D2A2 :|
|: defg afdg | (3faf df a2gf |1 e^def gfgf | (3efg fa g2fe :|2 gbef deBd | AFEF D2d2 ||
